X: 76
T: Trip to Pakistan
R:reel
C:Niall Kenny
M:C|
K:Em
"Em"EGBE "G"~G3B|"D"~A3B AGFG|"Em"EGBE "G"~G3B|"D"AGFG "Em"E4:|
|: "Em"EGBG "Am"c3A|"G"BAGB "D"AGFG|"Em"EGBG "Am"c3A|"G"BAGB "D"A4:|
|: "Bm"FGBF GBFG|"Em"EFGE FGFE|"D"DFAD FADF|AGFG "Em"E4:|


